; generated by PrusaSlicer 2.3.0+win64 on 2021-02-21 at 11:14:31 UTC

; 

; external perimeters extrusion width = 0.45mm
; perimeters extrusion width = 0.45mm
; infill extrusion width = 0.45mm
; solid infill extrusion width = 0.45mm
; top infill extrusion width = 0.40mm
; support material extrusion width = 0.35mm
; first layer extrusion width = 0.42mm

M73 P0 R46
M73 Q0 S47
M201 X1000 Y1000 Z200 E5000 ; sets maximum accelerations, mm/sec^2
M203 X200 Y200 Z12 E120 ; sets maximum feedrates, mm/sec
M204 P1250 R1250 T1250 ; sets acceleration (P, T) and retract acceleration (R), mm/sec^2
M205 X8.00 Y8.00 Z0.40 E4.50 ; sets the jerk limits, mm/sec
M205 S0 T0 ; sets the minimum extruding and travel feed rate, mm/sec
M107
;TYPE:Custom
M862.3 P "MK3S" ; printer model check
M862.1 P0.4 ; nozzle diameter check
M115 U3.9.0 ; tell printer latest fw version
G90 ; use absolute coordinates
M83 ; extruder relative mode
M104 S215 ; set extruder temp
M140 S60 ; set bed temp
M190 S60 ; wait for bed temp
M109 S215 ; wait for extruder temp
G28 W ; home all without mesh bed level
G80 ; mesh bed leveling
G1 Y-3.0 F1000.0 ; go outside print area
G92 E0.0
G1 X60.0 E9.0 F1000.0 ; intro line
M73 Q0 S46
G1 X100.0 E12.5 F1000.0 ; intro line
G92 E0.0
M221 S95
G21 ; set units to millimeters
G90 ; use absolute coordinates
M83 ; use relative distances for extrusion
M900 K0.06 ; Filament gcode LA 1.5
M900 K30 ; Filament gcode LA 1.0
;LAYER_CHANGE
;Z:0.2
;HEIGHT:0.2
;BEFORE_LAYER_CHANGE
G92 E0.0
;0.2


G1 E-1.20000 F2100.000
G1 Z0.600 F10800.000
;AFTER_LAYER_CHANGE
;0.2
G1 X118.398 Y75.781
G1 Z0.200
G1 E1.20000 F2100.000
M204 S1000
;TYPE:Skirt
;WIDTH:0.42
G1 F900.000
G1 X119.152 Y75.625 E0.02414
G1 X130.754 Y75.623 E0.36376
G1 X132.522 Y75.792 E0.05569
G1 X133.908 Y76.171 E0.04505
G1 X135.222 Y76.758 E0.04512
G1 X136.698 Y77.751 E0.05577
G1 X137.961 Y79.007 E0.05586
G1 X138.792 Y80.178 E0.04504
G1 X139.557 Y81.783 E0.05574
G1 X139.944 Y83.158 E0.04479
G1 X140.127 Y84.988 E0.05765
G1 X140.127 Y114.038 E0.91086
G1 X139.381 Y117.907 E0.12354
G1 X132.916 Y132.980 E0.51424
G1 X132.591 Y133.503 E0.01929
G1 X132.144 Y133.926 E0.01929
G1 X131.495 Y134.257 E0.02284
G1 X130.777 Y134.377 E0.02284
G1 X119.204 Y134.377 E0.36285
G1 X117.932 Y134.283 E0.04001
G1 X117.006 Y134.104 E0.02956
G1 X115.666 Y133.665 E0.04419
G1 X114.434 Y133.046 E0.04326
G1 X113.302 Y132.249 E0.04339
G1 X112.306 Y131.301 E0.04313
G1 X111.454 Y130.211 E0.04338
G1 X110.779 Y129.021 E0.04290
G1 X110.281 Y127.734 E0.04325
G1 X109.976 Y126.385 E0.04338
G1 X109.873 Y125.009 E0.04326
G1 X109.873 Y95.954 E0.91098
G1 X110.620 Y92.261 E0.11814
G1 X117.076 Y77.039 E0.51841
G1 X117.355 Y76.564 E0.01728
G1 X117.737 Y76.167 E0.01728
G1 X118.347 Y75.811 E0.02214
; printing object ap-pole-bracket.obj id:0 copy 0
;WIPE_START
G1 F8640.000
G1 X119.152 Y75.625 E-0.19094
G1 X123.263 Y75.624 E-0.94906
;WIPE_END
G1 E-0.06000 F2100.000
G1 Z0.800 F10800.000
G1 X112.933 Y95.756
G1 Z0.200
G1 E1.20000 F2100.000
;TYPE:Support material
G1 F900.000
G1 X112.933 Y92.807 E0.09248
G1 X113.688 Y92.807 E0.02365
G1 X113.688 Y95.586 E0.08716
G1 X114.442 Y95.586 E0.02365
G1 X114.442 Y92.807 E0.08716
G1 X115.196 Y92.807 E0.02365
G1 X115.196 Y95.586 E0.08716
G1 X115.950 Y95.586 E0.02365
G1 X115.950 Y92.807 E0.08716
G1 X116.704 Y92.807 E0.02365
G1 X116.704 Y95.586 E0.08716
G1 X116.921 Y95.586 E0.00681
G1 X117.164 Y95.829 E0.01074
G1 X117.164 Y101.044 E0.16351
G1 X117.458 Y101.044 E0.00925
G1 X117.458 Y92.807 E0.25826
G1 X118.213 Y92.807 E0.02365
G1 X118.213 Y101.213 E0.26358
;WIPE_START
G1 F8640.000
G1 X118.213 Y96.276 E-1.14000
;WIPE_END
G1 E-0.06000 F2100.000
G1 Z0.800 F10800.000
G1 X118.213 Y114.389
G1 Z0.200
G1 E1.20000 F2100.000
G1 F900.000
G1 X118.213 Y108.956 E0.17033
G1 X117.458 Y108.956 E0.02365
G1 X117.458 Y114.389 E0.17033
;WIPE_START
G1 F8640.000
G1 X117.458 Y109.451 E-1.14000
;WIPE_END
G1 E-0.06000 F2100.000
G1 Z0.800 F10800.000
G1 X131.787 Y117.363
G1 Z0.200
G1 E1.20000 F2100.000
G1 F900.000
G1 X131.787 Y108.956 E0.26358
G1 X132.542 Y108.956 E0.02365
G1 X132.542 Y117.193 E0.25826
G1 X133.296 Y117.193 E0.02365
G1 X133.296 Y114.414 E0.08716
G1 X134.050 Y114.414 E0.02365
G1 X134.050 Y117.193 E0.08716
G1 X134.804 Y117.193 E0.02365
G1 X134.804 Y114.414 E0.08716
G1 X135.558 Y114.414 E0.02365
G1 X135.558 Y117.193 E0.08716
G1 X136.312 Y117.193 E0.02365
G1 X136.312 Y114.414 E0.08716
G1 X137.067 Y114.414 E0.02365
G1 X137.067 Y117.363 E0.09248
;WIPE_START
G1 F8640.000
G1 X137.067 Y114.414 E-0.68102
G1 X136.312 Y114.414 E-0.17414
G1 X136.312 Y115.647 E-0.28484
;WIPE_END
G1 E-0.06000 F2100.000
G1 Z0.800 F10800.000
G1 X132.542 Y101.213
G1 Z0.200
G1 E1.20000 F2100.000
G1 F900.000
G1 X132.542 Y95.781 E0.17032
G1 X131.787 Y95.781 E0.02365
G1 X131.787 Y101.213 E0.17032
;WIPE_START
G1 F8640.000
G1 X131.787 Y96.276 E-1.14000
;WIPE_END
G1 E-0.06000 F2100.000
G1 Z0.800 F10800.000
G1 X125.876 Y118.884
M73 P1 R46
M73 Q1 S46
G1 Z0.200
G1 E1.20000 F2100.000
;TYPE:Perimeter
G1 F900.000
G1 X126.272 Y119.096 E0.01408
G1 X126.619 Y119.381 E0.01407
G1 X126.904 Y119.728 E0.01407
G1 X127.116 Y120.124 E0.01408
G1 X127.246 Y120.553 E0.01407
G1 X127.290 Y121.000 E0.01408
G1 X127.246 Y121.447 E0.01408
G1 X127.116 Y121.876 E0.01407
G1 X126.904 Y122.272 E0.01408
G1 X126.619 Y122.619 E0.01407
G1 X126.272 Y122.904 E0.01407
G1 X125.876 Y123.116 E0.01408
G1 X125.447 Y123.246 E0.01407
G1 X125.000 Y123.290 E0.01408
G1 X124.553 Y123.246 E0.01408
G1 X124.124 Y123.116 E0.01407
G1 X123.728 Y122.904 E0.01408
G1 X123.381 Y122.619 E0.01407
G1 X123.096 Y122.272 E0.01407
G1 X122.884 Y121.876 E0.01408
G1 X122.754 Y121.447 E0.01407
G1 X122.710 Y121.000 E0.01408
G1 X122.754 Y120.553 E0.01408
G1 X122.884 Y120.124 E0.01407
G1 X123.096 Y119.728 E0.01408
G1 X123.381 Y119.381 E0.01407
G1 X123.728 Y119.096 E0.01407
G1 X124.124 Y118.884 E0.01408
G1 X124.553 Y118.754 E0.01406
G1 X124.991 Y118.710 E0.01382
G1 X125.446 Y118.754 E0.01432
G1 X125.819 Y118.867 E0.01221
G1 X125.709 Y119.228 F10800.000
;TYPE:External perimeter
G1 F900.000
G1 X126.062 Y119.411 E0.01246
G1 X126.351 Y119.649 E0.01174
G1 X126.589 Y119.938 E0.01174
G1 X126.766 Y120.269 E0.01175
G1 X126.874 Y120.627 E0.01174
G1 X126.911 Y121.000 E0.01175
G1 X126.874 Y121.373 E0.01175
G1 X126.766 Y121.731 E0.01174
G1 X126.589 Y122.062 E0.01175
G1 X126.351 Y122.351 E0.01174
G1 X126.062 Y122.589 E0.01174
G1 X125.731 Y122.766 E0.01175
G1 X125.373 Y122.874 E0.01174
G1 X125.000 Y122.911 E0.01175
G1 X124.627 Y122.874 E0.01175
G1 X124.269 Y122.766 E0.01174
G1 X123.938 Y122.589 E0.01175
G1 X123.649 Y122.351 E0.01174
G1 X123.411 Y122.062 E0.01174
G1 X123.234 Y121.731 E0.01175
G1 X123.126 Y121.373 E0.01174
G1 X123.089 Y121.000 E0.01175
G1 X123.126 Y120.627 E0.01175
G1 X123.234 Y120.269 E0.01174
G1 X123.411 Y119.938 E0.01175
G1 X123.649 Y119.649 E0.01174
G1 X123.938 Y119.411 E0.01174
G1 X124.269 Y119.234 E0.01175
G1 X124.627 Y119.126 E0.01174
G1 X124.992 Y119.089 E0.01151
G1 X125.373 Y119.126 E0.01198
G1 X125.652 Y119.210 E0.00915
G1 X126.022 Y118.983 F10800.000
;WIPE_START
G1 F8640.000
G1 X126.062 Y119.411 E-0.10539
G1 X126.351 Y119.649 E-0.08648
G1 X126.589 Y119.938 E-0.08648
G1 X126.766 Y120.269 E-0.08654
G1 X126.874 Y120.627 E-0.08648
G1 X126.911 Y121.000 E-0.08652
G1 X126.874 Y121.373 E-0.08652
G1 X126.766 Y121.731 E-0.08648
G1 X126.589 Y122.062 E-0.08654
G1 X126.351 Y122.351 E-0.08648
G1 X126.062 Y122.589 E-0.08648
G1 X125.731 Y122.766 E-0.08654
G1 X125.387 Y122.870 E-0.08307
;WIPE_END
G1 E-0.06000 F2100.000
G1 Z0.800 F10800.000
G1 X125.000 Y91.290
G1 Z0.200
G1 E1.20000 F2100.000
;TYPE:Perimeter
G1 F900.000
G1 X124.553 Y91.246 E0.01408
G1 X124.124 Y91.116 E0.01407
G1 X123.728 Y90.904 E0.01408
G1 X123.381 Y90.619 E0.01407
G1 X123.096 Y90.272 E0.01407
G1 X122.884 Y89.876 E0.01408
G1 X122.754 Y89.447 E0.01407
G1 X122.710 Y89.000 E0.01408
G1 X122.754 Y88.553 E0.01408
G1 X122.884 Y88.124 E0.01407
G1 X123.096 Y87.728 E0.01408
G1 X123.381 Y87.381 E0.01407
G1 X123.728 Y87.096 E0.01407
G1 X124.124 Y86.884 E0.01408
G1 X124.553 Y86.754 E0.01406
G1 X124.991 Y86.710 E0.01382
G1 X125.446 Y86.754 E0.01432
G1 X125.876 Y86.884 E0.01410
G1 X126.272 Y87.096 E0.01408
G1 X126.619 Y87.381 E0.01407
G1 X126.904 Y87.728 E0.01407
G1 X127.116 Y88.124 E0.01408
G1 X127.246 Y88.553 E0.01407
G1 X127.290 Y89.000 E0.01408
G1 X127.246 Y89.447 E0.01408
G1 X127.116 Y89.876 E0.01407
G1 X126.904 Y90.272 E0.01408
G1 X126.619 Y90.619 E0.01407
G1 X126.272 Y90.904 E0.01407
G1 X125.876 Y91.116 E0.01408
G1 X125.447 Y91.246 E0.01407
G1 X125.060 Y91.284 E0.01220
G1 X125.023 Y90.909 F10800.000
;TYPE:External perimeter
G1 F900.000
G1 X124.627 Y90.874 E0.01245
G1 X124.269 Y90.766 E0.01174
G1 X123.938 Y90.589 E0.01175
G1 X123.649 Y90.351 E0.01174
G1 X123.411 Y90.062 E0.01174
G1 X123.234 Y89.731 E0.01175
G1 X123.126 Y89.373 E0.01174
G1 X123.089 Y89.000 E0.01175
G1 X123.126 Y88.627 E0.01175
G1 X123.234 Y88.269 E0.01174
G1 X123.411 Y87.938 E0.01175
G1 X123.649 Y87.649 E0.01174
G1 X123.938 Y87.411 E0.01174
G1 X124.269 Y87.234 E0.01175
G1 X124.627 Y87.126 E0.01174
G1 X124.992 Y87.089 E0.01151
G1 X125.373 Y87.126 E0.01198
G1 X125.731 Y87.234 E0.01176
G1 X126.062 Y87.411 E0.01175
G1 X126.351 Y87.649 E0.01174
G1 X126.589 Y87.938 E0.01174
G1 X126.766 Y88.269 E0.01175
G1 X126.874 Y88.627 E0.01174
G1 X126.911 Y89.000 E0.01175
G1 X126.874 Y89.373 E0.01175
G1 X126.766 Y89.731 E0.01174
G1 X126.589 Y90.062 E0.01175
G1 X126.351 Y90.351 E0.01174
G1 X126.062 Y90.589 E0.01174
G1 X125.731 Y90.766 E0.01175
G1 X125.373 Y90.874 E0.01174
G1 X125.082 Y90.903 E0.00915
G1 X124.827 Y91.254 F10800.000
;WIPE_START
G1 F8640.000
G1 X124.627 Y90.874 E-0.10536
G1 X124.269 Y90.766 E-0.08648
G1 X123.938 Y90.589 E-0.08654
G1 X123.649 Y90.351 E-0.08648
G1 X123.411 Y90.062 E-0.08648
G1 X123.234 Y89.731 E-0.08654
G1 X123.126 Y89.373 E-0.08648
G1 X123.089 Y89.000 E-0.08652
G1 X123.126 Y88.627 E-0.08652
G1 X123.234 Y88.269 E-0.08648
G1 X123.411 Y87.938 E-0.08654
G1 X123.649 Y87.649 E-0.08647
G1 X123.927 Y87.420 E-0.08311
;WIPE_END
G1 E-0.06000 F2100.000
G1 Z0.800 F10800.000
G1 X134.037 Y94.580
G1 Z0.200
G1 E1.20000 F2100.000
;TYPE:Perimeter
G1 F900.000
G1 X129.963 Y94.580 E0.12774
G1 X129.963 Y131.213 E1.14858
G1 X119.267 Y131.213 E0.33537
G1 X118.641 Y131.182 E0.01964
G1 X118.031 Y131.092 E0.01934
G1 X117.453 Y130.947 E0.01867
G1 X116.866 Y130.737 E0.01956
G1 X116.600 Y130.619 E0.00911
G1 X116.056 Y130.328 E0.01934
G1 X115.543 Y129.986 E0.01934
G1 X115.083 Y129.608 E0.01866
G1 X114.642 Y129.167 E0.01957
G1 X114.452 Y128.947 E0.00911
G1 X114.085 Y128.451 E0.01934
G1 X113.768 Y127.922 E0.01934
G1 X113.634 Y127.656 E0.00933
G1 X113.513 Y127.384 E0.00933
G1 X113.303 Y126.796 E0.01957
G1 X113.225 Y126.517 E0.00911
G1 X113.105 Y125.912 E0.01934
G1 X113.045 Y125.298 E0.01934
G1 X113.037 Y124.990 E0.00964
G1 X113.037 Y96.787 E0.88429
G1 X115.963 Y96.787 E0.09174
G1 X115.963 Y115.420 E0.58421
G1 X120.037 Y115.420 E0.12774
G1 X120.037 Y78.787 E1.14858
G1 X130.742 Y78.787 E0.33565
G1 X131.359 Y78.818 E0.01936
G1 X131.969 Y78.908 E0.01934
G1 X132.253 Y78.972 E0.00911
G1 X132.850 Y79.153 E0.01957
G1 X133.121 Y79.258 E0.00911
G1 X133.678 Y79.521 E0.01934
G1 X134.201 Y79.835 E0.01911
G1 X134.697 Y80.202 E0.01934
G1 X134.917 Y80.392 E0.00911
G1 X135.353 Y80.828 E0.01934
G1 X135.740 Y81.299 E0.01911
G1 X136.078 Y81.806 E0.01911
G1 X136.369 Y82.350 E0.01934
G1 X136.487 Y82.616 E0.00911
G1 X136.695 Y83.197 E0.01934
G1 X136.843 Y83.788 E0.01911
G1 X136.932 Y84.391 E0.01911
G1 X136.963 Y85.017 E0.01964
G1 X136.963 Y113.213 E0.88407
G1 X134.037 Y113.213 E0.09174
G1 X134.037 Y94.640 E0.58233
G1 X133.660 Y94.958 F10800.000
;TYPE:External perimeter
G1 F900.000
G1 X130.340 Y94.958 E0.10410
G1 X130.340 Y131.590 E1.14858
G1 X119.258 Y131.590 E0.34748
G1 X118.604 Y131.558 E0.02051
G1 X117.962 Y131.463 E0.02036
G1 X117.340 Y131.307 E0.02012
G1 X116.726 Y131.087 E0.02044
G1 X116.435 Y130.958 E0.00998
G1 X115.862 Y130.652 E0.02036
G1 X115.322 Y130.291 E0.02036
G1 X114.826 Y129.885 E0.02011
G1 X114.366 Y129.424 E0.02044
G1 X114.158 Y129.183 E0.00998
G1 X113.771 Y128.661 E0.02036
M73 P1 R45
G1 X113.437 Y128.104 E0.02036
G1 X113.293 Y127.818 E0.01006
G1 X113.163 Y127.524 E0.01006
G1 X112.943 Y126.910 E0.02044
G1 X112.858 Y126.604 E0.00998
G1 X112.732 Y125.967 E0.02036
G1 X112.668 Y125.321 E0.02036
G1 X112.660 Y124.995 E0.01022
G1 X112.660 Y96.410 E0.89626
G1 X116.340 Y96.410 E0.11538
G1 X116.340 Y115.042 E0.58421
G1 X119.660 Y115.042 E0.10410
M73 Q2 S46
G1 X119.660 Y78.410 E1.14858
M73 P2 R45
G1 X130.751 Y78.410 E0.34776
G1 X131.396 Y78.442 E0.02023
G1 X132.038 Y78.537 E0.02036
G1 X132.349 Y78.607 E0.00998
G1 X132.972 Y78.796 E0.02044
G1 X133.269 Y78.911 E0.00998
G1 X133.856 Y79.188 E0.02036
G1 X134.411 Y79.521 E0.02028
G1 X134.933 Y79.908 E0.02036
G1 X135.174 Y80.116 E0.00998
G1 X135.633 Y80.575 E0.02036
G1 X136.043 Y81.075 E0.02028
G1 X136.402 Y81.612 E0.02027
G1 X136.708 Y82.185 E0.02036
G1 X136.837 Y82.476 E0.00998
G1 X137.056 Y83.087 E0.02036
G1 X137.213 Y83.714 E0.02028
G1 X137.308 Y84.354 E0.02028
G1 X137.340 Y85.008 E0.02051
G1 X137.340 Y113.590 E0.89618
G1 X133.660 Y113.590 E0.11538
G1 X133.660 Y95.018 E0.58233
G1 X133.634 Y94.558 F10800.000
;WIPE_START
G1 F8640.000
G1 X130.340 Y94.958 E-0.76672
G1 X130.340 Y96.574 E-0.37328
;WIPE_END
G1 E-0.06000 F2100.000
G1 Z0.800 F10800.000
G1 X136.850 Y97.236
M73 Q2 S45
G1 Z0.200
G1 E1.20000 F2100.000
;TYPE:Solid infill
;WIDTH:0.422895
G1 F900.000
G1 X134.320 Y94.706 E0.11304
G1 X134.320 Y95.243 E0.01698
G1 X136.680 Y97.604 E0.10546
G1 X136.680 Y98.141 E0.01698
G1 X134.320 Y95.781 E0.10546
G1 X134.320 Y96.318 E0.01698
G1 X136.680 Y98.678 E0.10546
G1 X136.680 Y99.216 E0.01698
G1 X134.320 Y96.856 E0.10546
G1 X134.320 Y97.393 E0.01698
G1 X136.680 Y99.753 E0.10546
G1 X136.680 Y100.290 E0.01698
G1 X134.320 Y97.930 E0.10546
G1 X134.320 Y98.468 E0.01698
G1 X136.680 Y100.828 E0.10546
G1 X136.680 Y101.365 E0.01698
G1 X134.320 Y99.005 E0.10546
G1 X134.320 Y99.542 E0.01698
G1 X136.680 Y101.903 E0.10546
G1 X136.680 Y102.440 E0.01698
G1 X134.320 Y100.080 E0.10546
G1 X134.320 Y100.617 E0.01698
G1 X136.680 Y102.977 E0.10546
G1 X136.680 Y103.515 E0.01698
G1 X134.320 Y101.154 E0.10546
G1 X134.320 Y101.692 E0.01698
G1 X136.680 Y104.052 E0.10546
G1 X136.680 Y104.589 E0.01698
G1 X134.320 Y102.229 E0.10546
G1 X134.320 Y102.767 E0.01698
G1 X136.680 Y105.127 E0.10546
G1 X136.680 Y105.664 E0.01698
G1 X134.320 Y103.304 E0.10546
G1 X134.320 Y103.841 E0.01698
G1 X136.680 Y106.202 E0.10546
G1 X136.680 Y106.739 E0.01698
G1 X134.320 Y104.379 E0.10546
G1 X134.320 Y104.916 E0.01698
G1 X136.680 Y107.276 E0.10546
G1 X136.680 Y107.814 E0.01698
G1 X134.320 Y105.453 E0.10546
G1 X134.320 Y105.991 E0.01698
G1 X136.680 Y108.351 E0.10546
G1 X136.680 Y108.888 E0.01698
G1 X134.320 Y106.528 E0.10546
G1 X134.320 Y107.065 E0.01698
G1 X136.680 Y109.426 E0.10546
G1 X136.680 Y109.963 E0.01698
G1 X134.320 Y107.603 E0.10546
G1 X134.320 Y108.140 E0.01698
G1 X136.680 Y110.500 E0.10546
G1 X136.680 Y111.038 E0.01698
G1 X134.320 Y108.678 E0.10546
G1 X134.320 Y109.215 E0.01698
G1 X136.680 Y111.575 E0.10546
G1 X136.680 Y112.113 E0.01698
G1 X134.320 Y109.752 E0.10546
G1 X134.320 Y110.290 E0.01698
G1 X136.680 Y112.650 E0.10546
G1 X136.680 Y112.930 E0.00885
G1 X136.423 Y112.930 E0.00812
G1 X134.320 Y110.827 E0.09397
G1 X134.320 Y111.364 E0.01698
G1 X135.886 Y112.930 E0.06996
G1 X135.348 Y112.930 E0.01698
G1 X134.320 Y111.902 E0.04595
G1 X134.320 Y112.439 E0.01698
G1 X134.981 Y113.100 E0.02952
;WIPE_START
G1 F8640.000
G1 X134.320 Y112.439 E-0.21575
G1 X134.320 Y111.902 E-0.12408
G1 X135.348 Y112.930 E-0.33581
G1 X135.886 Y112.930 E-0.12408
G1 X134.844 Y111.888 E-0.34028
;WIPE_END
G1 E-0.06000 F2100.000
G1 Z0.800 F10800.000
G1 X129.850 Y97.759
G1 Z0.200
G1 E1.20000 F2100.000
G1 F900.000
G1 X120.320 Y88.229 E0.42582
G1 X120.320 Y88.767 E0.01698
G1 X129.680 Y98.127 E0.41824
G1 X129.680 Y98.664 E0.01698
G1 X120.320 Y89.304 E0.41824
G1 X120.320 Y89.841 E0.01698
G1 X129.680 Y99.202 E0.41824
G1 X129.680 Y99.739 E0.01698
G1 X120.320 Y90.379 E0.41824
G1 X120.320 Y90.916 E0.01698
G1 X129.680 Y100.276 E0.41824
G1 X129.680 Y100.814 E0.01698
