; generated by PrusaSlicer 2.3.3+win64 on 2021-12-12 at 10:23:55 UTC

; 

; external perimeters extrusion width = 0.45mm
; perimeters extrusion width = 0.45mm
; infill extrusion width = 0.45mm
; solid infill extrusion width = 0.45mm
; top infill extrusion width = 0.40mm
; first layer extrusion width = 0.42mm

M73 P0 R136
M73 Q0 S137
M201 X1000 Y1000 Z200 E5000 ; sets maximum accelerations, mm/sec^2
M203 X200 Y200 Z12 E120 ; sets maximum feedrates, mm/sec
M204 P1250 R1250 T1250 ; sets acceleration (P, T) and retract acceleration (R), mm/sec^2
M205 X8.00 Y8.00 Z0.40 E4.50 ; sets the jerk limits, mm/sec
M205 S0 T0 ; sets the minimum extruding and travel feed rate, mm/sec
M107
;TYPE:Custom
M862.3 P "MK3S" ; printer model check
M862.1 P0.4 ; nozzle diameter check
M115 U3.9.0 ; tell printer latest fw version
G90 ; use absolute coordinates
M83 ; extruder relative mode
M104 S215 ; set extruder temp
M140 S60 ; set bed temp
M190 S60 ; wait for bed temp
M109 S215 ; wait for extruder temp
G28 W ; home all without mesh bed level
G80 ; mesh bed leveling
G1 Y-3.0 F1000.0 ; go outside print area
G92 E0.0
G1 X60.0 E9.0 F1000.0 ; intro line
G1 X100.0 E12.5 F1000.0 ; intro line
G92 E0.0
M221 S95
G21 ; set units to millimeters
G90 ; use absolute coordinates
M83 ; use relative distances for extrusion
M900 K0.06 ; Filament gcode LA 1.5
M900 K30 ; Filament gcode LA 1.0
;LAYER_CHANGE
;Z:0.2
;HEIGHT:0.2
;BEFORE_LAYER_CHANGE
G92 E0.0
;0.2


G1 E-1.20000 F2100.000
G1 Z0.600 F10800.000
;AFTER_LAYER_CHANGE
;0.2
G1 X89.115 Y59.197
G1 Z0.200
G1 E1.20000 F2100.000
M204 S1000
;TYPE:Skirt
;WIDTH:0.42
G1 F900.000
G1 X89.873 Y58.144 E0.04068
G1 X90.684 Y57.274 E0.03729
G1 X92.275 Y56.038 E0.06316
G1 X93.322 Y55.467 E0.03742
G1 X94.482 Y55.009 E0.03909
G1 X95.686 Y54.700 E0.03896
G1 X96.904 Y54.544 E0.03850
G1 X152.168 Y54.523 E1.73277
G1 X154.031 Y54.700 E0.05869
G1 X155.831 Y55.223 E0.05876
G1 X157.497 Y56.072 E0.05865
G1 X158.975 Y57.217 E0.05863
G1 X160.215 Y58.622 E0.05873
G1 X161.170 Y60.233 E0.05874
G1 X161.805 Y61.992 E0.05861
G1 X162.097 Y63.796 E0.05730
G1 X162.120 Y145.562 E2.56372
G1 X162.041 Y146.778 E0.03820
G1 X161.789 Y148.064 E0.04110
G1 X161.205 Y149.689 E0.05413
G1 X160.600 Y150.808 E0.03990
G1 X159.845 Y151.856 E0.04050
G1 X159.033 Y152.727 E0.03732
G1 X157.435 Y153.966 E0.06340
G1 X156.395 Y154.533 E0.03716
G1 X155.228 Y154.994 E0.03933
G1 X154.024 Y155.302 E0.03896
G1 X152.749 Y155.460 E0.04028
G1 X97.497 Y155.476 E1.73241
G1 X96.232 Y155.388 E0.03975
G1 X94.548 Y155.012 E0.05408
G1 X93.330 Y154.537 E0.04100
G1 X92.266 Y153.956 E0.03801
G1 X91.215 Y153.199 E0.04063
G1 X90.311 Y152.353 E0.03881
G1 X89.511 Y151.389 E0.03929
G1 X88.863 Y150.379 E0.03762
G1 X88.307 Y149.211 E0.04054
G1 X87.934 Y148.084 E0.03722
G1 X87.613 Y146.075 E0.06380
G1 X87.597 Y64.438 E2.55967
G1 X87.676 Y63.225 E0.03813
G1 X87.929 Y61.932 E0.04130
G1 X88.514 Y60.309 E0.05410
G1 X89.086 Y59.249 E0.03775
; printing object esp8266addon_w_support.stl id:0 copy 0
;WIPE_START
G1 F8640.000
G1 X89.873 Y58.144 E-0.31331
G1 X90.684 Y57.274 E-0.27461
G1 X92.275 Y56.038 E-0.46510
G1 X92.605 Y55.858 E-0.08698
;WIPE_END
G1 E-0.06000 F2100.000
G1 Z0.800 F10800.000
G1 X96.702 Y110.841
G1 Z0.200
G1 E1.20000 F2100.000
;TYPE:Perimeter
G1 F900.000
G1 X97.127 Y110.801 E0.01338
G1 X97.566 Y110.787 E0.01377
G1 X152.155 Y110.787 E1.71158
G1 X152.590 Y110.801 E0.01367
G1 X153.015 Y110.841 E0.01338
G1 X153.437 Y110.908 E0.01338
G1 X153.853 Y111.001 E0.01338
G1 X154.263 Y111.120 E0.01338
G1 X154.664 Y111.264 E0.01338
G1 X155.056 Y111.434 E0.01338
G1 X155.436 Y111.628 E0.01338
G1 X155.803 Y111.845 E0.01338
G1 X156.156 Y112.085 E0.01338
G1 X156.493 Y112.346 E0.01338
G1 X156.814 Y112.628 E0.01338
G1 X157.115 Y112.930 E0.01338
G1 X157.398 Y113.250 E0.01338
G1 X157.659 Y113.587 E0.01338
G1 X157.899 Y113.940 E0.01338
G1 X158.116 Y114.308 E0.01338
G1 X158.310 Y114.688 E0.01338
G1 X158.479 Y115.079 E0.01338
G1 X158.624 Y115.481 E0.01338
G1 X158.743 Y115.891 E0.01338
G1 X158.836 Y116.307 E0.01338
G1 X158.903 Y116.729 E0.01338
G1 X158.943 Y117.154 E0.01338
G1 X158.957 Y117.592 E0.01377
G1 X158.957 Y145.508 E0.87526
G1 X158.943 Y145.946 E0.01377
G1 X158.903 Y146.371 E0.01338
G1 X158.836 Y146.793 E0.01338
G1 X158.743 Y147.209 E0.01338
G1 X158.624 Y147.619 E0.01338
G1 X158.479 Y148.021 E0.01338
G1 X158.310 Y148.412 E0.01338
G1 X158.116 Y148.792 E0.01338
G1 X157.899 Y149.160 E0.01338
G1 X157.659 Y149.513 E0.01338
G1 X157.398 Y149.850 E0.01338
G1 X157.115 Y150.170 E0.01338
G1 X156.813 Y150.472 E0.01338
G1 X156.493 Y150.754 E0.01338
G1 X156.156 Y151.015 E0.01338
G1 X155.803 Y151.255 E0.01338
G1 X155.436 Y151.472 E0.01338
G1 X155.056 Y151.666 E0.01338
G1 X154.664 Y151.836 E0.01338
G1 X154.263 Y151.980 E0.01338
G1 X153.853 Y152.099 E0.01338
G1 X153.437 Y152.192 E0.01338
G1 X153.015 Y152.259 E0.01338
G1 X152.590 Y152.299 E0.01338
G1 X152.151 Y152.313 E0.01377
G1 X97.566 Y152.313 E1.71148
G1 X97.127 Y152.299 E0.01377
G1 X96.702 Y152.259 E0.01338
G1 X96.281 Y152.192 E0.01338
G1 X95.865 Y152.099 E0.01338
G1 X95.455 Y151.980 E0.01338
G1 X95.053 Y151.836 E0.01338
G1 X94.662 Y151.666 E0.01338
G1 X94.281 Y151.472 E0.01338
G1 X93.914 Y151.255 E0.01338
G1 X93.561 Y151.015 E0.01338
G1 X93.224 Y150.754 E0.01338
G1 X92.904 Y150.472 E0.01338
G1 X92.602 Y150.170 E0.01338
G1 X92.320 Y149.850 E0.01338
G1 X92.059 Y149.513 E0.01338
G1 X91.819 Y149.160 E0.01338
G1 X91.601 Y148.792 E0.01338
G1 X91.408 Y148.412 E0.01338
G1 X91.238 Y148.021 E0.01338
G1 X91.094 Y147.619 E0.01338
G1 X90.975 Y147.209 E0.01338
G1 X90.882 Y146.793 E0.01338
G1 X90.815 Y146.371 E0.01338
G1 X90.775 Y145.946 E0.01338
G1 X90.761 Y145.508 E0.01377
G1 X90.761 Y117.592 E0.87526
G1 X90.775 Y117.153 E0.01377
G1 X90.815 Y116.729 E0.01338
G1 X90.882 Y116.307 E0.01338
G1 X90.975 Y115.891 E0.01338
G1 X91.094 Y115.481 E0.01338
G1 X91.238 Y115.079 E0.01338
G1 X91.408 Y114.688 E0.01338
G1 X91.601 Y114.308 E0.01338
G1 X91.819 Y113.940 E0.01338
G1 X92.059 Y113.587 E0.01338
G1 X92.320 Y113.250 E0.01338
G1 X92.602 Y112.930 E0.01338
G1 X92.904 Y112.628 E0.01338
G1 X93.224 Y112.346 E0.01338
G1 X93.561 Y112.085 E0.01338
G1 X93.914 Y111.845 E0.01338
G1 X94.281 Y111.628 E0.01338
G1 X94.662 Y111.434 E0.01338
G1 X95.053 Y111.264 E0.01338
G1 X95.455 Y111.120 E0.01338
G1 X95.865 Y111.001 E0.01338
G1 X96.643 Y110.850 E0.02487
G1 X96.584 Y110.478 F10800.000
;TYPE:External perimeter
G1 F900.000
G1 X97.104 Y110.424 E0.01637
G1 X97.560 Y110.410 E0.01432
G1 X152.161 Y110.410 E1.71195
G1 X152.614 Y110.424 E0.01422
G1 X153.062 Y110.467 E0.01412
G1 X153.507 Y110.537 E0.01412
G1 X153.947 Y110.635 E0.01412
G1 X154.379 Y110.761 E0.01412
G1 X154.803 Y110.914 E0.01412
G1 X155.217 Y111.093 E0.01412
G1 X155.618 Y111.297 E0.01412
G1 X156.005 Y111.526 E0.01412
G1 X156.378 Y111.780 E0.01412
G1 X156.734 Y112.056 E0.01412
G1 X157.072 Y112.353 E0.01412
G1 X157.390 Y112.672 E0.01412
G1 X157.688 Y113.010 E0.01412
G1 X157.964 Y113.366 E0.01412
G1 X158.217 Y113.738 E0.01412
G1 X158.447 Y114.126 E0.01412
G1 X158.651 Y114.527 E0.01412
G1 X158.830 Y114.941 E0.01412
G1 X158.983 Y115.364 E0.01412
G1 X159.108 Y115.797 E0.01412
G1 X159.207 Y116.237 E0.01412
G1 X159.277 Y116.681 E0.01412
G1 X159.319 Y117.130 E0.01412
G1 X159.334 Y117.586 E0.01432
G1 X159.334 Y145.514 E0.87563
G1 X159.319 Y145.970 E0.01432
G1 X159.277 Y146.419 E0.01412
G1 X159.207 Y146.863 E0.01412
G1 X159.108 Y147.303 E0.01412
G1 X158.983 Y147.736 E0.01412
G1 X158.830 Y148.159 E0.01412
G1 X158.651 Y148.573 E0.01412
G1 X158.447 Y148.974 E0.01412
G1 X158.217 Y149.362 E0.01412
G1 X157.964 Y149.734 E0.01413
G1 X157.688 Y150.090 E0.01412
G1 X157.390 Y150.428 E0.01412
G1 X157.072 Y150.747 E0.01413
G1 X156.734 Y151.044 E0.01412
G1 X156.378 Y151.320 E0.01412
G1 X156.005 Y151.574 E0.01413
G1 X155.618 Y151.803 E0.01412
G1 X155.217 Y152.007 E0.01412
G1 X154.803 Y152.186 E0.01412
G1 X154.379 Y152.339 E0.01412
G1 X153.947 Y152.464 E0.01412
G1 X153.507 Y152.563 E0.01412
G1 X153.062 Y152.633 E0.01412
M73 Q0 S136
G1 X152.614 Y152.676 E0.01412
G1 X152.157 Y152.690 E0.01432
G1 X97.560 Y152.690 E1.71185
M73 P0 R135
G1 X97.104 Y152.676 E0.01432
G1 X96.655 Y152.633 E0.01412
G1 X96.210 Y152.563 E0.01412
G1 X95.771 Y152.464 E0.01412
G1 X95.338 Y152.339 E0.01412
G1 X94.914 Y152.186 E0.01412
G1 X94.501 Y152.007 E0.01412
G1 X94.100 Y151.803 E0.01412
G1 X93.712 Y151.574 E0.01412
G1 X93.339 Y151.320 E0.01412
G1 X92.984 Y151.044 E0.01412
G1 X92.646 Y150.747 E0.01412
G1 X92.327 Y150.428 E0.01413
G1 X92.029 Y150.090 E0.01412
G1 X91.753 Y149.734 E0.01412
G1 X91.500 Y149.362 E0.01412
G1 X91.271 Y148.974 E0.01412
G1 X91.066 Y148.573 E0.01412
G1 X90.887 Y148.159 E0.01412
G1 X90.735 Y147.736 E0.01412
G1 X90.609 Y147.303 E0.01412
G1 X90.511 Y146.863 E0.01412
G1 X90.441 Y146.419 E0.01412
G1 X90.398 Y145.970 E0.01412
G1 X90.384 Y145.514 E0.01432
G1 X90.384 Y117.586 E0.87563
G1 X90.398 Y117.130 E0.01432
G1 X90.441 Y116.681 E0.01412
G1 X90.511 Y116.237 E0.01412
G1 X90.609 Y115.797 E0.01412
G1 X90.735 Y115.364 E0.01412
G1 X90.887 Y114.941 E0.01412
G1 X91.066 Y114.527 E0.01412
G1 X91.271 Y114.126 E0.01412
G1 X91.500 Y113.738 E0.01412
G1 X91.753 Y113.366 E0.01412
G1 X92.029 Y113.010 E0.01412
G1 X92.327 Y112.672 E0.01412
G1 X92.646 Y112.353 E0.01412
G1 X92.984 Y112.056 E0.01412
G1 X93.339 Y111.780 E0.01412
G1 X93.712 Y111.526 E0.01412
G1 X94.100 Y111.297 E0.01412
G1 X94.501 Y111.093 E0.01412
G1 X94.914 Y110.914 E0.01412
G1 X95.338 Y110.761 E0.01412
G1 X95.771 Y110.635 E0.01412
G1 X96.525 Y110.487 E0.02410
G1 X96.832 Y110.792 F10800.000
;WIPE_START
G1 F8640.000
G1 X97.104 Y110.424 E-0.13440
G1 X97.560 Y110.410 E-0.10549
G1 X101.458 Y110.410 E-0.90011
;WIPE_END
G1 E-0.06000 F2100.000
G1 Z0.800 F10800.000
G1 X157.829 Y114.044
G1 Z0.200
G1 E1.20000 F2100.000
;TYPE:Solid infill
;WIDTH:0.420612
G1 F900.000
G1 X156.616 Y112.831 E0.05389
G1 X156.313 Y112.564 E0.01267
G1 X155.990 Y112.314 E0.01284
G1 X155.652 Y112.084 E0.01284
G1 X155.300 Y111.876 E0.01284
G1 X154.946 Y111.695 E0.01248
G1 X158.049 Y114.798 E0.13782
G1 X158.216 Y115.184 E0.01320
G1 X158.383 Y115.667 E0.01606
G1 X154.077 Y111.360 E0.19128
G1 X153.365 Y111.183 E0.02304
G1 X158.561 Y116.379 E0.23077
G1 X158.644 Y116.996 E0.01955
G1 X152.748 Y111.100 E0.26186
G1 X152.185 Y111.071 E0.01770
G1 X158.673 Y117.559 E0.28814
G1 X158.674 Y118.094 E0.01681
G1 X151.650 Y111.070 E0.31197
G1 X151.116 Y111.070 E0.01677
G1 X158.674 Y118.628 E0.33569
G1 X158.674 Y119.162 E0.01677
G1 X150.582 Y111.070 E0.35941
G1 X150.047 Y111.070 E0.01677
G1 X158.674 Y119.697 E0.38314
G1 X158.674 Y120.231 E0.01677
G1 X149.513 Y111.070 E0.40686
G1 X148.979 Y111.070 E0.01677
G1 X158.674 Y120.765 E0.43058
G1 X158.674 Y121.299 E0.01677
G1 X148.445 Y111.070 E0.45431
G1 X147.911 Y111.070 E0.01677
G1 X158.674 Y121.833 E0.47803
G1 X158.674 Y122.367 E0.01677
G1 X147.377 Y111.070 E0.50175
G1 X146.843 Y111.070 E0.01677
G1 X158.674 Y122.901 E0.52547
G1 X158.674 Y123.435 E0.01677
G1 X146.308 Y111.070 E0.54920
G1 X145.774 Y111.070 E0.01677
G1 X158.674 Y123.970 E0.57292
G1 X158.674 Y124.504 E0.01677
G1 X145.240 Y111.070 E0.59664
G1 X144.706 Y111.070 E0.01677
G1 X158.674 Y125.038 E0.62037
G1 X158.674 Y125.572 E0.01677
G1 X144.172 Y111.070 E0.64409
G1 X143.638 Y111.070 E0.01677
G1 X158.674 Y126.106 E0.66781
G1 X158.674 Y126.640 E0.01677
G1 X143.104 Y111.070 E0.69154
G1 X142.569 Y111.070 E0.01677
G1 X158.674 Y127.174 E0.71526
M73 P1 R135
M73 Q1 S136
G1 X158.674 Y127.709 E0.01677
G1 X142.035 Y111.070 E0.73898
G1 X141.501 Y111.070 E0.01677
G1 X158.674 Y128.243 E0.76271
G1 X158.674 Y128.777 E0.01677
G1 X140.967 Y111.070 E0.78643
G1 X140.433 Y111.070 E0.01677
G1 X158.674 Y129.311 E0.81015
G1 X158.674 Y129.845 E0.01677
G1 X139.899 Y111.070 E0.83387
G1 X139.365 Y111.070 E0.01677
G1 X158.674 Y130.379 E0.85760
G1 X158.674 Y130.913 E0.01677
G1 X138.830 Y111.070 E0.88132
G1 X138.296 Y111.070 E0.01677
G1 X158.674 Y131.448 E0.90504
G1 X158.674 Y131.982 E0.01677
G1 X137.762 Y111.070 E0.92877
G1 X137.228 Y111.070 E0.01677
G1 X158.674 Y132.516 E0.95249
G1 X158.674 Y133.050 E0.01677
G1 X136.694 Y111.070 E0.97621
G1 X136.160 Y111.070 E0.01677
G1 X158.674 Y133.584 E0.99994
G1 X158.674 Y134.118 E0.01677
G1 X135.626 Y111.070 E1.02366
G1 X135.092 Y111.070 E0.01677
G1 X158.674 Y134.652 E1.04738
G1 X158.674 Y135.186 E0.01677
G1 X134.557 Y111.070 E1.07110
M73 Q1 S135
G1 X134.023 Y111.070 E0.01677
G1 X158.674 Y135.721 E1.09483
M73 P1 R134
G1 X158.674 Y136.255 E0.01677
G1 X133.489 Y111.070 E1.11855
G1 X132.955 Y111.070 E0.01677
G1 X158.674 Y136.789 E1.14227
G1 X158.674 Y137.323 E0.01677
G1 X132.421 Y111.070 E1.16600
G1 X131.887 Y111.070 E0.01677
G1 X158.674 Y137.857 E1.18972
G1 X158.674 Y138.391 E0.01677
G1 X131.353 Y111.070 E1.21344
G1 X130.818 Y111.070 E0.01677
G1 X158.674 Y138.925 E1.23717
G1 X158.674 Y139.460 E0.01677
G1 X130.284 Y111.070 E1.26089
G1 X129.750 Y111.070 E0.01677
G1 X158.674 Y139.994 E1.28461
G1 X158.674 Y140.528 E0.01677
G1 X129.216 Y111.070 E1.30834
G1 X128.682 Y111.070 E0.01677
G1 X158.674 Y141.062 E1.33206
G1 X158.674 Y141.596 E0.01677
G1 X128.148 Y111.070 E1.35578
G1 X127.614 Y111.070 E0.01677
G1 X158.674 Y142.130 E1.37950
G1 X158.674 Y142.664 E0.01677
G1 X127.079 Y111.070 E1.40323
G1 X126.545 Y111.070 E0.01677
G1 X158.674 Y143.199 E1.42695
G1 X158.674 Y143.733 E0.01677
G1 X126.011 Y111.070 E1.45067
G1 X125.477 Y111.070 E0.01677
G1 X158.674 Y144.267 E1.47440
G1 X158.674 Y144.801 E0.01677
G1 X124.943 Y111.070 E1.49812
G1 X124.409 Y111.070 E0.01677
G1 X158.674 Y145.335 E1.52184
M73 P2 R134
M73 Q2 S135
G1 X158.663 Y145.858 E0.01643
G1 X123.875 Y111.070 E1.54507
G1 X123.340 Y111.070 E0.01677
G1 X158.620 Y146.349 E1.56689
M73 Q2 S134
G1 X158.543 Y146.807 E0.01456
G1 X122.806 Y111.070 E1.58720
M73 P2 R133
G1 X122.272 Y111.070 E0.01677
G1 X158.440 Y147.238 E1.60635
G1 X158.314 Y147.646 E0.01341
G1 X121.738 Y111.070 E1.62446
G1 X121.204 Y111.070 E0.01677
G1 X158.166 Y148.032 E1.64163
G1 X157.999 Y148.399 E0.01267
G1 X120.670 Y111.070 E1.65793
G1 X120.136 Y111.070 E0.01677
G1 X157.814 Y148.748 E1.67342
G1 X157.611 Y149.080 E0.01220
G1 X119.602 Y111.070 E1.68815
G1 X119.067 Y111.070 E0.01677
G1 X157.392 Y149.395 E1.70216
G1 X157.158 Y149.694 E0.01195
G1 X118.533 Y111.070 E1.71545
G1 X117.999 Y111.070 E0.01677
G1 X156.907 Y149.978 E1.72805
G1 X156.640 Y150.245 E0.01186
G1 X117.465 Y111.070 E1.73991
G1 X116.931 Y111.070 E0.01677
G1 X156.358 Y150.497 E1.75108
G1 X156.059 Y150.733 E0.01194
G1 X116.397 Y111.070 E1.76157
G1 X115.863 Y111.070 E0.01677
G1 X155.745 Y150.953 E1.77134
G1 X155.415 Y151.156 E0.01219
G1 X115.328 Y111.070 E1.78039
G1 X114.794 Y111.070 E0.01677
G1 X155.067 Y151.343 E1.78867
G1 X154.702 Y151.511 E0.01265
G1 X114.260 Y111.070 E1.79615
M73 P2 R132
M73 Q2 S133
G1 X113.726 Y111.070 E0.01677
G1 X154.316 Y151.660 E1.80277
G1 X153.910 Y151.788 E0.01338
G1 X113.192 Y111.070 E1.80844
G1 X112.658 Y111.070 E0.01677
G1 X153.480 Y151.893 E1.81309
G1 X153.025 Y151.971 E0.01452
M73 P3 R132
G1 X112.124 Y111.070 E1.81657
M73 Q3 S133
G1 X111.589 Y111.070 E0.01677
G1 X152.537 Y152.018 E1.81865
G1 X152.016 Y152.030 E0.01639
G1 X111.055 Y111.070 E1.81920
G1 X110.521 Y111.070 E0.01677
G1 X151.481 Y152.030 E1.81920
G1 X150.947 Y152.030 E0.01677
G1 X109.987 Y111.070 E1.81920
G1 X109.453 Y111.070 E0.01677
G1 X150.413 Y152.030 E1.81920
G1 X149.879 Y152.030 E0.01677
G1 X108.919 Y111.070 E1.81920
G1 X108.385 Y111.070 E0.01677
G1 X149.345 Y152.030 E1.81920
G1 X148.811 Y152.030 E0.01677
G1 X107.850 Y111.070 E1.81920
G1 X107.316 Y111.070 E0.01677
G1 X148.277 Y152.030 E1.81920
G1 X147.742 Y152.030 E0.01677
G1 X106.782 Y111.070 E1.81920
G1 X106.248 Y111.070 E0.01677
G1 X147.208 Y152.030 E1.81920
M73 P3 R131
M73 Q3 S132
G1 X146.674 Y152.030 E0.01677
G1 X105.714 Y111.070 E1.81920
G1 X105.180 Y111.070 E0.01677
G1 X146.140 Y152.030 E1.81920
G1 X145.606 Y152.030 E0.01677
G1 X104.646 Y111.070 E1.81920
G1 X104.112 Y111.070 E0.01677
G1 X145.072 Y152.030 E1.81920
G1 X144.538 Y152.030 E0.01677
G1 X103.577 Y111.070 E1.81920
G1 X103.043 Y111.070 E0.01677
G1 X144.003 Y152.030 E1.81920
G1 X143.469 Y152.030 E0.01677
G1 X102.509 Y111.070 E1.81920
G1 X101.975 Y111.070 E0.01677
